Cloud/dashboard/static/tracks/imola.svg

<?xml version="1.0" encoding="UTF-8"?>
<!-- Uploaded to: SVG Find, www.svgfind.com, Generator: SVG Find Mixer Tools -->
<svg fill="#000000" width="800px" height="800px" version="1.1" viewBox="144 144 512 512" xmlns="http://www.w3.org/2000/svg">
 <path d="m607.35 208.45c3.3008-5.7969 2.4609-12.965-2.0938-17.832-4.4141-4.7227-11.895-6.1094-17.703-3.2734l-88.754 43.312c-1.9453 0.94922-4.0156 1.5938-6.1602 1.9102l-40.391 6.0195c-13.691 2.043-23.664 14.016-23.199 27.848l0.82812 24.488c0.21094 6.2109 2.0547 12.285 5.3398 17.566l26.562 42.719c2.4805 3.9883 3.0586 8.832 1.5859 13.293l-4.3945 13.297c-0.62891 1.9102-2.7812 3.0039-4.75 2.2656l-0.90625-0.33984c-4.0859-1.5352-8.6484-1.5195-12.73 0.039063l-112.43 43.152-0.39453-0.83594c-1.4883-3.125-4.5664-5.0664-8.0352-5.0664-2.3008 0-4.4883 0.87891-6.1484 2.4766l-41.77 40.141c-3.9297 3.7734-7.25 8.1172-9.8711 12.902l-40.516 74.043c-0.87109 1.5938-1.9766 3.0352-3.2852 4.2891l-22.582 21.656c-3.1836 3.0508-4.9297 7.1602-4.9141 11.57 0.015625 4.4062 1.7852 8.5 4.9922 11.527 4.1641 3.9375 9.3555 8.9219 14.148 13.773 3.0156 3.0469 7.0391 4.7266 11.328 4.7266 3.8711 0 7.6016-1.4023 10.516-3.957l49.562-43.449c9.9219-8.6953 22.047-14.434 35.066-16.594 12.344-2.0508 21.746-3.8086 27.941-5.2266 6.8555-1.5703 11.773-7.8164 11.695-14.855l-0.046875-4.5586 47.926-5.8359 1.2109 10.164 43.645-5.2031 4.1289 3.0156 13.242-10.352-11.895 1.418-44.551 5.3086-0.59375-4.9883 32.988-4.0195c2.1094-0.26172 4.2031-0.70312 6.2109-1.3125 16.645-5.0547 73.5-23.734 106.41-52.055 2.7812-2.3906 4.1055-5.9805 3.5469-9.5898l-1.5938-10.383c-0.14844-0.96875 0.18359-1.957 0.89453-2.6406l13.211-12.742c7.5586-7.2852 11.895-17.074 12.211-27.574l3.1172-103.19c0.21484-7.0781-2.1055-14.02-6.5273-19.547l-3.9883-4.9844c-1.3086-1.6367-1.4844-3.8711-0.44922-5.6953zm-40.07 69.059 3.9883 4.9844c2.875 3.5898 4.3789 8.1016 4.2422 12.699l-3.1172 103.19c-0.23438 7.75-3.4375 14.984-9.0195 20.363l-13.215 12.742c-3.1484 3.0352-4.6328 7.4336-3.9648 11.758l1.5586 10.461c-32.164 27.676-91.133 46.48-102.63 49.973-1.4375 0.4375-2.9297 0.75391-4.4375 0.9375l-86.891 10.582c-4.8398 0.58594-8.457 4.7109-8.4062 9.5859l0.054687 5.3633c0.023438 2.1562-1.4805 4.0742-3.5742 4.5547-5.9922 1.3711-15.184 3.0898-27.32 5.1055-14.945 2.4766-28.863 9.0664-40.25 19.047l-49.562 43.449c-2.1094 1.8516-5.5469 1.7344-7.5195-0.26172-4.8828-4.9375-10.164-10.016-14.402-14.023-1.1016-1.043-1.7109-2.4492-1.7188-3.9648-0.003906-1.5195 0.59375-2.9336 1.6914-3.9883l22.586-21.652c2.082-1.9922 3.8398-4.2891 5.2227-6.8203l40.516-74.039c2.1094-3.8555 4.7812-7.3438 7.9414-10.383l40.211-38.641c2.168 4.0938 7.375 6.0938 11.758 4.4141l113.3-43.418c1.6992-0.65234 3.5938-0.66797 5.3203-0.015626l0.90625 0.33984c1.5977 0.59766 3.2656 0.90234 4.9609 0.90234 6.0977 0 11.48-3.8906 13.391-9.6797l4.3906-13.297c2.4492-7.4102 1.4883-15.465-2.6367-22.094l-26.562-42.719c-2.3164-3.7227-3.6211-8.0117-3.7656-12.395l-0.82812-24.488c-0.28906-8.5234 5.8555-15.898 14.289-17.152l40.391-6.0195c3.1992-0.48047 6.2969-1.4375 9.1992-2.8555l88.754-43.312c1.8164-0.89062 4.1094-0.46094 5.4805 1.0117 1.4102 1.5078 1.6719 3.7227 0.64844 5.5195l-32.359 56.836c-3.1602 5.5703-2.6211 12.398 1.3789 17.402z"/>
</svg>

<?xml version="1.0" encoding="utf-8"?>
<svg fill="#000000" width="800px" height="800px" version="1.1" viewBox="144 144 512 512" xmlns="http://www.w3.org/2000/svg">
  <path d="M 607.35 208.45 C 610.651 202.653 609.811 195.485 605.256 190.618 C 600.842 185.895 593.361 184.509 587.553 187.345 L 498.799 230.657 C 496.854 231.606 494.784 232.25 492.639 232.567 L 452.248 238.586 C 438.557 240.629 428.584 252.602 429.049 266.434 L 429.877 290.922 C 430.088 297.133 431.932 303.207 435.217 308.488 L 461.779 351.207 C 464.259 355.196 464.838 360.039 463.365 364.5 L 458.97 377.797 C 458.341 379.707 456.189 380.801 454.22 380.063 L 453.314 379.723 C 449.228 378.188 444.666 378.204 440.584 379.762 L 328.154 422.914 L 327.76 422.078 C 326.271 418.953 323.193 417.012 319.724 417.012 C 317.424 417.012 315.236 417.891 313.576 419.488 L 271.806 459.629 C 267.876 463.403 264.556 467.747 261.935 472.531 L 221.419 546.574 C 220.548 548.168 219.442 549.61 218.134 550.863 L 195.552 572.519 C 192.368 575.57 190.622 579.68 190.638 584.089 C 190.653 588.496 192.423 592.589 195.63 595.616 C 199.794 599.554 204.985 604.538 209.778 609.389 C 212.793 612.436 216.817 614.116 221.106 614.116 C 224.977 614.116 228.707 612.714 231.622 610.159 L 281.184 566.71 C 291.106 558.015 303.231 552.276 316.25 550.116 C 328.594 548.065 337.996 546.308 344.191 544.89 C 351.046 543.319 355.964 537.073 355.886 530.035 L 355.839 525.476 L 441.94 514.983 C 444.049 514.722 446.143 514.28 448.151 513.671 C 464.796 508.616 521.651 489.937 554.561 461.616 C 557.342 459.225 558.666 455.635 558.108 452.026 L 556.514 441.643 C 556.366 440.674 556.698 439.686 557.409 439.003 L 570.62 426.261 C 578.178 418.975 582.515 409.187 582.831 398.687 L 585.948 295.497 C 586.163 288.418 583.842 281.477 579.42 275.95 L 575.432 270.965 C 574.124 269.328 573.948 267.094 574.983 265.27 L 607.35 208.45 Z M 567.28 277.509 L 571.268 282.493 C 574.143 286.083 575.647 290.595 575.51 295.192 L 572.393 398.382 C 572.159 406.132 568.956 413.366 563.374 418.745 L 550.159 431.487 C 547.01 434.523 545.526 438.921 546.194 443.245 L 547.753 453.706 C 515.589 481.382 456.62 500.186 445.123 503.679 C 443.685 504.117 442.193 504.433 440.685 504.617 L 353.794 515.199 C 348.954 515.785 345.337 519.91 345.388 524.785 L 345.443 530.148 C 345.466 532.304 343.962 534.222 341.868 534.703 C 335.876 536.074 326.684 537.793 314.548 539.808 C 299.603 542.285 285.685 548.875 274.298 558.855 L 224.736 602.304 C 222.627 604.156 219.189 604.039 217.217 602.043 C 212.334 597.105 207.053 592.027 202.815 588.02 C 201.713 586.977 201.104 585.57 201.096 584.055 C 201.092 582.535 201.69 581.121 202.787 580.066 L 225.373 558.414 C 227.455 556.422 229.213 554.125 230.596 551.594 L 271.112 477.555 C 273.222 473.7 275.893 470.211 279.054 467.172 L 319.265 428.531 C 321.433 432.625 326.64 434.625 331.023 432.945 L 444.323 389.527 C 446.022 388.875 447.916 388.859 449.643 389.512 L 450.549 389.852 C 452.147 390.449 453.815 390.754 455.51 390.754 C 461.608 390.754 466.99 386.863 468.901 381.074 L 473.292 367.777 C 475.741 360.367 474.78 352.312 470.655 345.683 L 444.093 302.964 C 441.777 299.241 440.472 294.952 440.327 290.569 L 439.499 266.081 C 439.21 257.558 445.355 250.183 453.788 248.929 L 494.179 242.91 C 497.378 242.429 500.476 241.472 503.378 240.054 L 592.132 196.742 C 593.949 195.852 596.242 196.281 597.613 197.754 C 599.023 199.262 599.285 201.477 598.261 203.273 L 565.902 260.109 C 562.742 265.68 563.281 272.507 567.281 277.511 L 567.28 277.509 Z"/>
</svg>
